X: 17
T: der Nayer Sher   [C]
T: the New Sher
C: Abraham Ellstein 1940
F: http://www.youtube.com/watch?v=S3Ck7JFmY88
S: Handout for MIT contra 2018-07-10 from Yaron Shragai, rev. for NEFFA Online 2021
M: 2/4
L: 1/8
K: C
"^A"|: z2G,2 | "C"CC G,C | EE CE | G2 A_B- | BA _B/A/G | ^FG- GE |[1,3 "G7"FE FG | "C"E4 :|[2,4 "G7"FD GG | "C"C4 "^B":: zC DE | "Fm"F4 |
z_A GF | "C"GE3 | zE DC | "G7"DE FG |[1,3EC DC | "C"G4 :|[2,4 EC DB, | "C"C4 "^C":: z4 | "C"G,C DE | DE DC | ^FG3- |
G4 | GE FE | DC B,C | "G7"D4-| D4 || "G7"G,D EF | EF ED | EF3- | F4 | GE FD | EC DB, | "C"C4 :|

%%sep 1 1 500


